symbols/web/devices/materialsymbolsoutlined/devices_wght300grad200_20px.svg

<svg xmlns="http://www.w3.org/2000/svg" height="20" width="20"><path d="M1.438 16.854v-2.833h1.645V5.167q0-.896.615-1.521.614-.625 1.51-.625h12.438v1.875H5.208q-.104 0-.177.083t-.073.188v8.854h5.188v2.833Zm11.208 0q-.354 0-.615-.271-.26-.271-.26-.625V7.479q0-.375.26-.604.261-.229.636-.229h5.083q.354 0 .583.239.229.24.229.594v8.479q0 .354-.229.625t-.583.271Zm1-2.833h3.042v-5.5h-3.042Z"/></svg>

<svg xmlns="http://www.w3.org/2000/svg" height="20" width="20"><path d="M1.438 16.854V14.021H3.083V5.167Q3.083 4.271 3.698 3.646Q4.312 3.021 5.208 3.021H17.646V4.896H5.208Q5.104 4.896 5.031 4.979Q4.958 5.062 4.958 5.167V14.021H10.146V16.854ZM12.646 16.854Q12.292 16.854 12.031 16.583Q11.771 16.312 11.771 15.958V7.479Q11.771 7.104 12.031 6.875Q12.292 6.646 12.667 6.646H17.75Q18.104 6.646 18.333 6.885Q18.562 7.125 18.562 7.479V15.958Q18.562 16.312 18.333 16.583Q18.104 16.854 17.75 16.854ZM13.646 14.021H16.688V8.521H13.646Z"/></svg>
